Simply black circles/scalable/mimes/text-css.svg

<?xml version="1.0" encoding="UTF-8" standalone="no"?>
<!-- Created with Inkscape (http://www.inkscape.org/) -->

<svg
   xmlns:dc="http://purl.org/dc/elements/1.1/"
   xmlns:cc="http://creativecommons.org/ns#"
   xmlns:rdf="http://www.w3.org/1999/02/22-rdf-syntax-ns#"
   xmlns:svg="http://www.w3.org/2000/svg"
   xmlns="http://www.w3.org/2000/svg"
   xmlns:xlink="http://www.w3.org/1999/xlink"
   xmlns:sodipodi="http://sodipodi.sourceforge.net/DTD/sodipodi-0.dtd"
   xmlns:inkscape="http://www.inkscape.org/namespaces/inkscape"
   version="1.1"
   width="48"
   height="48"
   id="svg21744"
   sodipodi:docname="text-css.svg"
   inkscape:version="0.92.3 (2405546, 2018-03-11)">
  <sodipodi:namedview
     pagecolor="#ffffff"
     bordercolor="#666666"
     borderopacity="1"
     objecttolerance="10"
     gridtolerance="10"
     guidetolerance="10"
     inkscape:pageopacity="0"
     inkscape:pageshadow="2"
     inkscape:window-width="1366"
     inkscape:window-height="690"
     id="namedview44"
     showgrid="false"
     inkscape:zoom="5.15625"
     inkscape:cx="-5.8986077"
     inkscape:cy="24"
     inkscape:window-x="0"
     inkscape:window-y="28"
     inkscape:window-maximized="1"
     inkscape:current-layer="svg21744"
     inkscape:snap-global="false" />
  <defs
     id="defs21746">
    <linearGradient
       x1="525.4375"
       y1="836.1875"
       x2="516.65625"
       y2="828.5"
       id="linearGradient14113"
       xlink:href="#linearGradient14494-2-7"
       gradientUnits="userSpaceOnUse"
       gradientTransform="translate(-125.5,-1702.64)" />
    <linearGradient
       id="linearGradient14494-2-7">
      <stop
         id="stop14496-9-3"
         style="stop-color:#dc85e9;stop-opacity:1"
         offset="0" />
      <stop
         id="stop14498-9-7"
         style="stop-color:#f2cbf8;stop-opacity:1"
         offset="1" />
    </linearGradient>
    <linearGradient
       x1="520.58502"
       y1="735.05206"
       x2="516.15179"
       y2="720.86298"
       id="linearGradient14115"
       xlink:href="#linearGradient14494-5"
       gradientUnits="userSpaceOnUse" />
    <linearGradient
       id="linearGradient14494-5">
      <stop
         id="stop14496-5"
         style="stop-color:#dc85e9;stop-opacity:1"
         offset="0" />
      <stop
         id="stop14498-1"
         style="stop-color:#f2cbf8;stop-opacity:1"
         offset="1" />
    </linearGradient>
    <linearGradient
       x1="525.4375"
       y1="836.1875"
       x2="516.65625"
       y2="828.5"
       id="linearGradient54948"
       xlink:href="#linearGradient14494-2-7"
       gradientUnits="userSpaceOnUse"
       gradientTransform="translate(-462.50049,-802.00385)" />
    <linearGradient
       x1="520.58502"
       y1="735.05206"
       x2="516.15179"
       y2="720.86298"
       id="linearGradient14109"
       xlink:href="#linearGradient14494-5"
       gradientUnits="userSpaceOnUse"
       gradientTransform="matrix(0.512535,0,0,0.615385,-202.35949,-422.92385)" />
    <linearGradient
       x1="525.4375"
       y1="836.1875"
       x2="516.65625"
       y2="828.5"
       id="linearGradient54952"
       xlink:href="#linearGradient14494-2-7"
       gradientUnits="userSpaceOnUse"
       gradientTransform="translate(-462.50049,-797.50385)" />
    <linearGradient
       x1="209.0625"
       y1="-765.46082"
       x2="209.0625"
       y2="-781.62268"
       id="linearGradient44039"
       xlink:href="#linearGradient15606-1"
       gradientUnits="userSpaceOnUse"
       gradientTransform="matrix(1.5,0,0,1.5,-364.99949,1176.9562)" />
    <linearGradient
       id="linearGradient15606-1">
      <stop
         id="stop15608-0"
         style="stop-color:#ffffff;stop-opacity:0.58823502"
         offset="0" />
      <stop
         id="stop15610-5"
         style="stop-color:#ffffff;stop-opacity:0.86274499"
         offset="1" />
    </linearGradient>
    <linearGradient
       x1="294.3429"
       y1="256.58133"
       x2="294.41818"
       y2="243.13852"
       id="linearGradient44042"
       xlink:href="#linearGradient10286-3"
       gradientUnits="userSpaceOnUse"
       gradientTransform="matrix(2.99213,0,0,3.00466,-830.71149,-727.44385)" />
    <linearGradient
       id="linearGradient10286-3">
      <stop
         id="stop10288-8"
         style="stop-color:#b3b3b3;stop-opacity:1"
         offset="0" />
      <stop
         id="stop10290-7"
         style="stop-color:#e6e6e6;stop-opacity:1"
         offset="1" />
    </linearGradient>
    <linearGradient
       x1="110.96875"
       y1="976.29968"
       x2="110.96875"
       y2="992.375"
       id="linearGradient43236"
       xlink:href="#linearGradient4145-42"
       gradientUnits="userSpaceOnUse" />
    <linearGradient
       id="linearGradient4145-42">
      <stop
         id="stop4953"
         style="stop-color:#e694bb;stop-opacity:1"
         offset="0" />
      <stop
         id="stop4955"
         style="stop-color:#d3819a;stop-opacity:1"
         offset="0.26238" />
      <stop
         id="stop4957"
         style="stop-color:#b25a64;stop-opacity:1"
         offset="0.704952" />
      <stop
         id="stop4959"
         style="stop-color:#98313d;stop-opacity:1"
         offset="1" />
    </linearGradient>
    <linearGradient
       x1="110.96875"
       y1="976.29968"
       x2="110.99982"
       y2="991.87488"
       id="linearGradient14097-7"
       xlink:href="#linearGradient4145-42"
       gradientUnits="userSpaceOnUse"
       gradientTransform="matrix(1,0,0,1.00011,0,-0.10551)" />
    <linearGradient
       x1="110.96875"
       y1="976.29968"
       x2="110.96875"
       y2="992.375"
       id="linearGradient21742"
       xlink:href="#linearGradient4145-42"
       gradientUnits="userSpaceOnUse"
       gradientTransform="matrix(1.00399,0,0,1.00959,-1.1658,-9.36636)" />
    <clipPath
       clipPathUnits="userSpaceOnUse"
       id="clipPath867">
      <g
         inkscape:label="Clip"
         id="use869">
        <path
           d="m 47.000614,3.0210706 v 0.75 40.5000404 0.72723 h 0.75 32.499399 0.75 v -0.72723 -25.50003 -0.3282 l -0.2344,-0.2343 -14.9059,-15.0000104 -0.1875,-0.1875 h -0.3282 -17.593399 z"
           id="path875"
           style="color:#000000;font-style:normal;font-variant:normal;font-weight:normal;font-stretch:normal;font-size:medium;line-height:normal;font-family:'Andale Mono';text-indent:0pt;text-align:start;text-decoration:none;text-decoration-line:none;letter-spacing:normal;word-spacing:normal;text-transform:none;direction:ltr;text-anchor:start;display:inline;overflow:visible;visibility:visible;fill:#000000;fill-opacity:1;fill-rule:nonzero;stroke:none;stroke-width:1;marker:none"
           inkscape:connector-curvature="0" />
      </g>
    </clipPath>
  </defs>
  <metadata
     id="metadata21749">
    <rdf:RDF>
      <cc:Work
         rdf:about="">
        <dc:format>image/svg+xml</dc:format>
        <dc:type
           rdf:resource="http://purl.org/dc/dcmitype/StillImage" />
        <dc:title></dc:title>
      </cc:Work>
    </rdf:RDF>
  </metadata>
  <path
     style="color:#000000;font-style:normal;font-variant:normal;font-weight:normal;font-stretch:normal;font-size:medium;line-height:normal;font-family:'Andale Mono';text-indent:0pt;text-align:start;text-decoration:none;text-decoration-line:none;letter-spacing:normal;word-spacing:normal;text-transform:none;direction:ltr;text-anchor:start;display:inline;overflow:visible;visibility:visible;fill:#1a1a1a;fill-opacity:1;stroke:none;stroke-width:5.99873972;marker:none"
     d="M 29.705078 -0.083984375 C 27.658234 -0.075805254 25.583576 0.00449542 25.1875 0.013671875 L 7 0.013671875 C 6.813106 -0.004321175 6.624454 -0.004321175 6.4375 0.013671875 C 5.062346 0.27607036 3.975341 1.61231 4 3.0117188 L 4 45 C 4.00015 46.570313 5.429312 47.99985 7 48 L 41 48 C 42.570687 47.99985 43.99985 46.570313 44 45 L 44 18.818359 C 44.018 18.026395 44.215294 8.8914456 43.664062 8.3222656 L 34.054688 0.24804688 C 33.770027 -0.02742658 31.751922 -0.092163496 29.705078 -0.083984375 z M 31.195312 3.0097656 L 31.328125 10.513672 C 31.340155 11.195372 31.966379 11.80479 32.644531 11.792969 L 40.416016 11.65625 C 40.548988 11.674363 40.684161 11.672765 40.816406 11.650391 L 40.898438 14.679688 L 41 18.771484 L 41 44.271484 L 41 44.998047 L 40.25 44.998047 L 7.75 44.998047 L 7 44.998047 L 7 44.271484 L 7 3.7714844 L 7 3.0214844 L 7.75 3.0214844 L 25.34375 3.0214844 L 25.671875 3.0214844 L 31.195312 3.0097656 z M 10.242188 6.9082031 L 10.242188 8.9453125 L 16.449219 8.9453125 L 16.449219 6.9082031 L 10.242188 6.9082031 z M 18.242188 6.9082031 L 18.242188 8.9453125 L 24.449219 8.9453125 L 24.449219 6.9082031 L 18.242188 6.9082031 z M 12.242188 10.908203 L 12.242188 12.945312 L 28.339844 12.945312 L 28.339844 10.908203 L 12.242188 10.908203 z M 10.242188 14.908203 L 10.242188 16.945312 L 24.109375 16.945312 L 24.109375 14.908203 L 10.242188 14.908203 z M 26.242188 14.908203 L 26.242188 16.945312 L 36.521484 16.945312 L 36.521484 14.908203 L 26.242188 14.908203 z M 10.242188 18.908203 L 10.242188 20.945312 L 16.642578 20.945312 L 16.642578 18.908203 L 10.242188 18.908203 z M 18.242188 18.908203 L 18.242188 20.945312 L 30.072266 20.945312 L 30.072266 18.908203 L 18.242188 18.908203 z M 32.242188 18.908203 L 32.242188 20.945312 L 36.412109 20.945312 L 36.412109 18.908203 L 32.242188 18.908203 z M 12.242188 22.908203 L 12.242188 24.945312 L 33.962891 24.945312 L 33.962891 22.908203 L 12.242188 22.908203 z M 12.242188 26.908203 L 12.242188 28.847656 L 29.599609 28.847656 L 29.599609 26.908203 L 12.242188 26.908203 z M 32.242188 26.908203 L 32.242188 28.847656 L 36.21875 28.847656 L 36.21875 26.908203 L 32.242188 26.908203 z M 10.023438 30.908203 L 10.023438 32.847656 L 26.21875 32.847656 L 26.21875 30.908203 L 10.023438 30.908203 z M 29.625 30.908203 L 29.625 32.847656 L 36.21875 32.847656 L 36.21875 30.908203 L 29.625 30.908203 z M 19.658203 37.394531 C 18.520803 37.338431 17.234067 37.779725 16.742188 38.890625 C 16.267527 40.020925 16.403814 41.528944 17.402344 42.339844 C 18.468844 43.160914 19.974006 43.120329 21.191406 42.693359 L 21.191406 41.892578 C 21.146136 41.717588 21.312906 41.136283 21.035156 41.408203 C 20.308656 41.866603 19.15175 41.983154 18.5625 41.246094 C 18.13043 40.600994 18.134567 39.625117 18.654297 39.029297 C 19.337197 38.361717 20.476836 38.565152 21.191406 39.076172 L 21.191406 37.6875 C 20.700806 37.50937 20.180293 37.407621 19.658203 37.394531 z M 25.048828 37.398438 C 24.444166 37.36536 23.840378 37.417682 23.267578 37.623047 C 22.366018 37.933747 22.144766 39.102123 22.535156 39.882812 C 22.946756 40.596853 23.867246 40.67575 24.603516 40.78125 C 25.183906 40.65847 26.042469 41.33215 25.255859 41.75 C 24.320259 42.01329 23.30032 41.758708 22.4375 41.361328 L 22.4375 42.167969 C 22.41448 42.474119 22.391671 42.785703 22.806641 42.751953 C 23.978441 43.008153 25.270784 43.170726 26.396484 42.660156 C 27.275994 42.243656 27.421351 40.987061 26.894531 40.244141 C 26.363831 39.666231 25.511773 39.630486 24.783203 39.509766 C 24.255563 39.615226 23.416483 39.008941 24.158203 38.619141 C 25.052503 38.371991 25.998677 38.649552 26.835938 38.982422 L 26.835938 37.6875 C 26.258888 37.549605 25.653491 37.431515 25.048828 37.398438 z M 30.853516 37.398438 C 30.248853 37.36536 29.645066 37.417682 29.072266 37.623047 C 28.170706 37.933747 27.951407 39.102123 28.341797 39.882812 C 28.753397 40.596853 29.673876 40.67575 30.410156 40.78125 C 30.990546 40.65847 31.847147 41.33215 31.060547 41.75 C 30.124947 42.01329 29.106971 41.758708 28.244141 41.361328 L 28.244141 42.167969 C 28.221131 42.474119 28.198311 42.785703 28.613281 42.751953 C 29.785081 43.008153 31.077425 43.170726 32.203125 42.660156 C 33.082645 42.243656 33.226029 40.987061 32.699219 40.244141 C 32.168519 39.666231 31.316461 39.630486 30.587891 39.509766 C 30.060251 39.615226 29.221181 39.008941 29.962891 38.619141 C 30.857191 38.371991 31.803355 38.649552 32.640625 38.982422 L 32.640625 37.6875 C 32.063575 37.549605 31.458178 37.431515 30.853516 37.398438 z "
     id="path14075" />
</svg>

<svg xmlns="http://www.w3.org/2000/svg" width="48" height="48"><defs><linearGradient id="a"><stop offset="0" stop-color="#dc85e9"/><stop offset="1" stop-color="#f2cbf8"/></linearGradient><linearGradient id="b"><stop offset="0" stop-color="#dc85e9"/><stop offset="1" stop-color="#f2cbf8"/></linearGradient><linearGradient id="c"><stop offset="0" stop-color="#fff" stop-opacity=".588"/><stop offset="1" stop-color="#fff" stop-opacity=".863"/></linearGradient><linearGradient id="d"><stop offset="0" stop-color="#b3b3b3"/><stop offset="1" stop-color="#e6e6e6"/></linearGradient><linearGradient id="e"><stop offset="0" stop-color="#e694bb"/><stop offset=".262" stop-color="#d3819a"/><stop offset=".705" stop-color="#b25a64"/><stop offset="1" stop-color="#98313d"/></linearGradient></defs><path style="line-height:normal;text-indent:0;text-align:start;text-decoration-line:none;text-transform:none;marker:none" d="M29.705-.084c-2.047.008-4.121.088-4.517.098H7a2.938 2.938 0 0 0-.563 0C5.063.276 3.975 1.612 4 3.012V45c0 1.57 1.43 3 3 3h34c1.57 0 3-1.43 3-3V18.818c.018-.792.215-9.927-.336-10.496L34.054.248c-.284-.275-2.302-.34-4.349-.332zm1.49 3.094l.133 7.504c.012.681.638 1.29 1.317 1.279l7.771-.137c.133.018.268.017.4-.006l.082 3.03L41 18.77v26.227H7V3.021h18.672l5.523-.011zM10.242 6.908v2.037h6.207V6.908h-6.207zm8 0v2.037h6.207V6.908h-6.207zm-6 4v2.037H28.34v-2.037H12.242zm-2 4v2.037H24.11v-2.037H10.242zm16 0v2.037h10.28v-2.037h-10.28zm-16 4v2.037h6.4v-2.037h-6.4zm8 0v2.037h11.83v-2.037h-11.83zm14 0v2.037h4.17v-2.037h-4.17zm-20 4v2.037h21.72v-2.037h-21.72zm0 4v1.94H29.6v-1.94H12.242zm20 0v1.94h3.977v-1.94h-3.977zm-22.219 4v1.94H26.22v-1.94H10.023zm19.602 0v1.94h6.594v-1.94h-6.594zm-9.967 6.487c-1.137-.057-2.424.385-2.916 1.496-.474 1.13-.338 2.638.66 3.449 1.067.82 2.572.78 3.79.353v-.8c-.046-.175.12-.757-.157-.485-.726.459-1.883.575-2.473-.162-.432-.645-.427-1.62.092-2.217.683-.667 1.823-.464 2.537.047v-1.389a4.865 4.865 0 0 0-1.533-.292zm5.39.003c-.604-.033-1.208.02-1.78.225-.902.31-1.123 1.48-.733 2.26.412.714 1.332.793 2.069.898.58-.123 1.438.551.652.969-.936.263-1.956.009-2.819-.389v.807c-.023.306-.045.618.37.584 1.171.256 2.464.419 3.59-.092.879-.416 1.024-1.673.498-2.416-.531-.578-1.383-.614-2.112-.734-.527.105-1.367-.501-.625-.89.895-.248 1.84.03 2.678.362v-1.294c-.577-.138-1.183-.256-1.787-.29zm5.806 0c-.605-.033-1.209.02-1.782.225-.901.31-1.12 1.48-.73 2.26.411.714 1.332.793 2.068.898.58-.123 1.437.551.65.969-.935.263-1.953.009-2.816-.389v.807c-.023.306-.046.618.37.584 1.171.256 2.463.419 3.59-.092.879-.416 1.022-1.673.495-2.416-.53-.578-1.383-.614-2.111-.734-.528.105-1.367-.501-.625-.89.894-.248 1.84.03 2.678.362v-1.294c-.577-.138-1.183-.256-1.787-.29z" color="#000" font-weight="400" font-family="Andale Mono" overflow="visible" fill="#1a1a1a"/></svg>
